contributed-vectors/computer_launcher_beta.svg

<?xml version="1.0" encoding="UTF-8" standalone="no"?>
<svg
   xmlns:dc="http://purl.org/dc/elements/1.1/"
   xmlns:cc="http://creativecommons.org/ns#"
   xmlns:rdf="http://www.w3.org/1999/02/22-rdf-syntax-ns#"
   xmlns:svg="http://www.w3.org/2000/svg"
   xmlns="http://www.w3.org/2000/svg"
   xmlns:sodipodi="http://sodipodi.sourceforge.net/DTD/sodipodi-0.dtd"
   xmlns:inkscape="http://www.inkscape.org/namespaces/inkscape"
   sodipodi:docname="computer_launcher_beta.svg"
   inkscape:version="1.0.1 (3bc2e813f5, 2020-09-07)"
   version="1.1"
   id="svg2"
   viewBox="0 0 192 192"
   height="192"
   width="192"
   inkscape:export-filename="/home/jphilippe/inkscape/icônes/delta-github/png/computer_launcher_beta.png"
   inkscape:export-xdpi="96"
   inkscape:export-ydpi="96">
  <sodipodi:namedview
     inkscape:document-rotation="0"
     inkscape:window-maximized="1"
     inkscape:window-y="30"
     inkscape:window-x="1920"
     inkscape:window-height="1022"
     inkscape:window-width="1680"
     units="px"
     showgrid="false"
     inkscape:current-layer="layer1"
     inkscape:document-units="px"
     inkscape:cy="-20.40449"
     inkscape:cx="309.05722"
     inkscape:zoom="1"
     inkscape:pageshadow="2"
     inkscape:pageopacity="0.0"
     borderopacity="1.0"
     bordercolor="#666666"
     pagecolor="#ffffff"
     id="base"
     inkscape:snap-bbox="false"
     inkscape:object-paths="true"
     inkscape:snap-nodes="true"
     showguides="true"
     inkscape:guide-bbox="true"
     inkscape:snap-object-midpoints="true"
     inkscape:snap-center="true"
     inkscape:snap-global="true"
     inkscape:snap-intersection-paths="true"
     inkscape:snap-smooth-nodes="true"
     inkscape:snap-midpoints="true" />
  <defs
     id="defs4" />
  <metadata
     id="metadata7">
    <rdf:RDF>
      <cc:Work
         rdf:about="">
        <dc:format>image/svg+xml</dc:format>
        <dc:type
           rdf:resource="http://purl.org/dc/dcmitype/StillImage" />
        <dc:title />
      </cc:Work>
    </rdf:RDF>
  </metadata>
  <g
     transform="translate(0,-860.36216)"
     id="layer1"
     inkscape:groupmode="layer"
     inkscape:label="Calque 1">
    <rect
       style="fill:#99bdfe;fill-opacity:1;fill-rule:evenodd;stroke:none;stroke-opacity:1"
       width="153"
       height="153"
       x="19.5"
       y="879.86218"
       rx="10"
       id="rect968" />
    <path
       id="path993"
       d="m 55.392475,909.47211 h 81.215065 a 6,6 45 0 1 6,6 v 53.25956 a 6,6 135 0 1 -6,6 H 55.392475 a 6,6 45 0 1 -6,-6 v -53.25956 a 6,6 135 0 1 6,-6 z"
       style="opacity:1;fill:#ffffff;stroke-width:16.1448;stroke-linecap:round;stroke-linejoin:round;stop-color:#000000;fill-opacity:1" />
    <path
       id="rect995"
       style="opacity:1;fill:#ffffff;fill-opacity:1;stroke-width:4.17483;stroke-linecap:round;stroke-linejoin:round;stop-color:#000000"
       d="M 81.507812 119.25977 L 81.507812 127.17578 L 67.115234 127.17578 A 3 3 0 0 0 64.115234 130.17578 L 64.115234 130.29492 A 3 3 0 0 0 67.115234 133.29492 L 81.507812 133.29492 L 110.49219 133.29492 L 124.88477 133.29492 A 3 3 0 0 0 127.88477 130.29492 L 127.88477 130.17578 A 3 3 0 0 0 124.88477 127.17578 L 110.49219 127.17578 L 110.49219 119.25977 L 81.507812 119.25977 z "
       transform="translate(0,860.36216)" />
    <text
       xml:space="preserve"
       style="font-weight:bold;font-size:33.1887px;line-height:1.25;font-family:Now;-inkscape-font-specification:'Now Bold';letter-spacing:0px;word-spacing:0px;stroke-width:0.829718;fill:#99bdfe;fill-opacity:1;opacity:1;"
       x="83.49202"
       y="956.93964"
       id="text1001"><tspan
         sodipodi:role="line"
         id="tspan999"
         x="83.49202"
         y="956.93964"
         style="stroke-width:0.829718;fill:#99bdfe;fill-opacity:1;">11</tspan></text>
    <path
       id="path1003"
       style="opacity:1;fill:#ff837d;fill-opacity:1;fill-rule:evenodd;stroke:none;stroke-width:0.873388;stroke-opacity:1"
       d="m 104.73387,1000.7856 c -4.83856,0 -8.73387,3.8953 -8.73387,8.7338 v 23.3427 h 67.76608 c 4.83857,0 8.73388,-3.8953 8.73388,-8.7339 v -23.3426 z"
       sodipodi:nodetypes="sscsscs" />
    <text
       xml:space="preserve"
       style="font-weight:bold;font-size:18.3482px;line-height:1.25;font-family:Now;-inkscape-font-specification:'Now Bold';letter-spacing:0px;word-spacing:0px;opacity:1;fill:#ffffff;fill-opacity:1;stroke-width:0.458704"
       x="110.82166"
       y="1024.3024"
       id="text1007"><tspan
         sodipodi:role="line"
         id="tspan1005"
         x="110.82166"
         y="1024.3024"
         style="fill:#ffffff;fill-opacity:1;stroke-width:0.458704">BETA</tspan></text>
  </g>
  <style
     type="text/css"
     id="style853">
	.st0{fill:#FFFFFF;}
</style>
</svg>

<svg xmlns="http://www.w3.org/2000/svg" id="svg2" width="192" height="192" version="1.1"><g id="layer1" transform="translate(0 -860.362)"><rect id="rect968" width="153" height="153" x="19.5" y="879.862" rx="10" style="fill:#99bdfe;fill-opacity:1;fill-rule:evenodd;stroke:none;stroke-opacity:1"/><path id="path993" d="M55.392 909.472h81.216a6 6 45 0 1 6 6v53.26a6 6 135 0 1-6 6H55.392a6 6 45 0 1-6-6v-53.26a6 6 135 0 1 6-6z" style="opacity:1;fill:#fff;stroke-width:16.1448;stroke-linecap:round;stroke-linejoin:round;stop-color:#000;fill-opacity:1"/><path id="rect995" d="M81.508 119.26v7.916H67.115a3 3 0 0 0-3 3v.119a3 3 0 0 0 3 3h57.77a3 3 0 0 0 3-3v-.12a3 3 0 0 0-3-3h-14.393v-7.915H81.508z" style="opacity:1;fill:#fff;fill-opacity:1;stroke-width:4.17483;stroke-linecap:round;stroke-linejoin:round;stop-color:#000" transform="translate(0 860.362)"/><text xml:space="preserve" id="text1001" x="83.492" y="956.94" style="font-weight:700;font-size:33.1887px;line-height:1.25;font-family:Now;-inkscape-font-specification:&quot;Now Bold&quot;;letter-spacing:0;word-spacing:0;stroke-width:.829718;fill:#99bdfe;fill-opacity:1;opacity:1"><tspan id="tspan999" x="83.492" y="956.94" style="stroke-width:.829718;fill:#99bdfe;fill-opacity:1">11</tspan></text><path id="path1003" d="M104.734 1000.786a8.715 8.715 0 0 0-8.734 8.733v23.343h67.766a8.715 8.715 0 0 0 8.734-8.734v-23.342z" style="opacity:1;fill:#ff837d;fill-opacity:1;fill-rule:evenodd;stroke:none;stroke-width:.873388;stroke-opacity:1"/><text xml:space="preserve" id="text1007" x="110.822" y="1024.302" style="font-weight:700;font-size:18.3482px;line-height:1.25;font-family:Now;-inkscape-font-specification:&quot;Now Bold&quot;;letter-spacing:0;word-spacing:0;opacity:1;fill:#fff;fill-opacity:1;stroke-width:.458704"><tspan id="tspan1005" x="110.822" y="1024.302" style="fill:#fff;fill-opacity:1;stroke-width:.458704">BETA</tspan></text></g><style id="style853" type="text/css">.st0{fill:#fff}</style></svg>
